src/files/images/icon-instagram.svg

<?xml version="1.0" encoding="UTF-8" standalone="no"?>
<svg width="54px" height="54px" viewBox="0 0 54 54" version="1.1" xmlns="http://www.w3.org/2000/svg" xmlns:xlink="http://www.w3.org/1999/xlink" xmlns:sketch="http://www.bohemiancoding.com/sketch/ns">
    <!-- Generator: Sketch 3.1.1 (8761) - http://www.bohemiancoding.com/sketch -->
    <title>Shape</title>
    <desc>Created with Sketch.</desc>
    <defs></defs>
    <g id="Page-1" stroke="none" stroke-width="1" fill="none" fill-rule="evenodd" sketch:type="MSPage">
        <g id="Desktop" sketch:type="MSArtboardGroup" transform="translate(-855.000000, -7047.000000)" fill="#FFFFFF">
            <g id="social" sketch:type="MSLayerGroup" transform="translate(292.000000, 7047.000000)">
                <g id="instagram" transform="translate(563.000000, 0.000000)" sketch:type="MSShapeGroup">
                    <path d="M27,0 C12.087,0 0,12.087 0,27 C0,41.913 12.087,54 27,54 C41.913,54 54,41.913 54,27 C54,12.087 41.913,0 27,0 L27,0 Z M41,36.5234892 C41,38.9955922 39.038586,41 36.6257931,41 L17.3742069,41 C14.9577884,41 13,38.9955922 13,36.5234892 L13,25.0018559 L18.6939013,25.0018559 C18.5887608,25.5400766 18.5343778,26.0968565 18.5343778,26.666628 C18.5343778,31.4549356 22.3248738,35.333836 27,35.333836 C31.6751262,35.333836 35.4656222,31.4549356 35.4656222,26.666628 C35.4656222,26.0968565 35.4112392,25.5400766 35.3060987,25 L41,25 L41,36.5234892 L41,36.5234892 Z M22,27 C22,24.239819 24.2390397,22 27,22 C29.7609603,22 32,24.239819 32,27 C32,29.7636617 29.7609603,32 27,32 C24.2390397,32 22,29.7636617 22,27 L22,27 Z M41,22 L33.9120808,22 C32.3784799,19.8614039 29.8551081,18.4655001 27.0018128,18.4655001 C24.1485174,18.4655001 21.6215201,19.8614039 20.089732,22 L13,22 L13,17.3201432 C13,14.9345794 14.9577884,13 17.3742069,13 L36.6257931,13 C39.038586,13 41,14.9345794 41,17.3201432 L41,22 L41,22 Z" id="Shape"></path>
                </g>
            </g>
        </g>
    </g>
</svg>

<svg width="54" height="54" viewBox="0 0 54 54" xmlns="http://www.w3.org/2000/svg" xmlns:sketch="http://www.bohemiancoding.com/sketch/ns"><title>Shape</title><desc>Created with Sketch.</desc><path d="M27 0c-14.913 0-27 12.087-27 27s12.087 27 27 27 27-12.087 27-27-12.087-27-27-27zm14 36.523c0 2.472-1.961 4.477-4.374 4.477h-19.252c-2.416 0-4.374-2.004-4.374-4.477v-11.522h5.694c-.105.538-.16 1.095-.16 1.665 0 4.788 3.79 8.667 8.466 8.667 4.675 0 8.466-3.879 8.466-8.667 0-.57-.054-1.127-.16-1.667h5.694v11.523zm-19-9.523c0-2.76 2.239-5 5-5s5 2.24 5 5c0 2.764-2.239 5-5 5s-5-2.236-5-5zm19-5h-7.088c-1.534-2.139-4.057-3.534-6.91-3.534-2.853 0-5.38 1.396-6.912 3.534h-7.09v-4.68c0-2.386 1.958-4.32 4.374-4.32h19.252c2.413 0 4.374 1.935 4.374 4.32v4.68z" sketch:type="MSShapeGroup" fill="#fff"/></svg>
